libs/shared/images/icons-sharp-light/memo.svg

<svg xmlns="http://www.w3.org/2000/svg" viewBox="0 0 384 512"><defs><style>.fa-secondary{opacity:.4}</style></defs><path class="fa-secondary" d="M0 0L0 512l384 0L384 0 0 0zM64 128l16 0 224 0 16 0 0 32-16 0L80 160l-16 0 0-32zm0 96l16 0 224 0 16 0 0 32-16 0L80 256l-16 0 0-32zm0 96l16 0 128 0 16 0 0 32-16 0L80 352l-16 0 0-32z"/><path class="fa-primary" d="M64 128l16 0 224 0 16 0 0 32-16 0L80 160l-16 0 0-32zm0 96l16 0 224 0 16 0 0 32-16 0L80 256l-16 0 0-32zm0 96l16 0 128 0 16 0 0 32-16 0L80 352l-16 0 0-32z"/></svg>

<svg xmlns="http://www.w3.org/2000/svg" viewBox="0 0 384 512"><path d="M32 32V480H352V32H32zM0 0H32 352h32V32 480v32H352 32 0V480 32 0zM80 128H304h16v32H304 80 64V128H80zm0 96H304h16v32H304 80 64V224H80zm0 96H208h16v32H208 80 64V320H80z"/></svg>
